X: 11601
Q: "Slow and gracefully."
M: C
L: 1/16
K: Eb
[|\
(G3A) B3c B2e2G2B2 | (c2B2)(A2G2) {G}F4 z2F2 |\
(G3A)(B3c) B2e2e3f | g4 Tf4 e4 z4 |]\
g4 e2g2 f2d2 (B2cd) | (e2c2)(A2e2) {e}d4 z2B2 |
c4 (B2A2) G4 (A2B2) | ca3{g}f3e {e}d4 z4 |\
(c2B2)A2G2 G2F2e2d2 | (c2B2)(A2G2) {B}A4 z2A2 |\
g2f2 e4 f4 d2f2 |
e2c2 F3e {e}d4 z2B2 |\
c3=Bc2A2 G4 A2B2 | (c2a2)({g}f3e) {e}d4 z4 |\
c2B2(A2G2) G2F2e2d2 | c2B2A2G2 c6 d2 |\
e4 g4 Hb6 BA | (Ge)(Bc) {EF}G3(F>E) E4 z4 |]


